icons/paste-16.svg

<svg xmlns="http://www.w3.org/2000/svg" width="16" height="16" viewBox="0 0 16 16"><path d="M3.626 3.533a.249.249 0 00-.126.217v9.5c0 .138.112.25.25.25h8.5a.25.25 0 00.25-.25v-9.5a.249.249 0 00-.126-.217.75.75 0 01.752-1.298c.541.313.874.89.874 1.515v9.5A1.75 1.75 0 0112.25 15h-8.5A1.75 1.75 0 012 13.25v-9.5c0-.625.333-1.202.874-1.515a.75.75 0 01.752 1.298zM5.75 1h4.5a.75.75 0 01.75.75v3a.75.75 0 01-.75.75h-4.5A.75.75 0 015 4.75v-3A.75.75 0 015.75 1zm.75 3h3V2.5h-3z"/></svg>

<svg xmlns="http://www.w3.org/2000/svg" width="16" height="16" viewBox="0 0 16 16">
  <defs/>
  <path d="M3.626,3.533 C3.548,3.577 3.5,3.66 3.5,3.75 L3.5,13.25 C3.5,13.388 3.612,13.5 3.75,13.5 L12.25,13.5 C12.388,13.5 12.5,13.388 12.5,13.25 L12.5,3.75 C12.5,3.66 12.452,3.577 12.374,3.533 C12.016,3.325 11.893,2.866 12.101,2.508 C12.309,2.15 12.768,2.027 13.126,2.235 C13.667,2.548 14,3.125 14,3.75 L14,13.25 C14,14.216 13.216,15 12.25,15 L3.75,15 C2.784,15 2,14.216 2,13.25 L2,3.75 C2,3.125 2.333,2.548 2.874,2.235 C3.232,2.027 3.691,2.15 3.899,2.508 C4.107,2.866 3.984,3.325 3.626,3.533 Z M5.75,1 L10.25,1 C10.664,1 11,1.336 11,1.75 L11,4.75 C11,5.164 10.664,5.5 10.25,5.5 L5.75,5.5 C5.336,5.5 5,5.164 5,4.75 L5,1.75 C5,1.336 5.336,1 5.75,1 Z M6.5,4 L9.5,4 L9.5,2.5 L6.5,2.5 Z"/>
</svg>
